src/icons/file-js-config.svg

<?xml version="1.0" encoding="UTF-8" standalone="no"?>
<svg
   version="1.2"
   viewBox="0 0 16 16"
   width="16"
   height="16"
   id="svg1"
   sodipodi:docname="js-config-test.svg"
   inkscape:version="1.4 (e7c3feb100, 2024-10-09)"
   xmlns:inkscape="http://www.inkscape.org/namespaces/inkscape"
   xmlns:sodipodi="http://sodipodi.sourceforge.net/DTD/sodipodi-0.dtd"
   xmlns="http://www.w3.org/2000/svg"
   xmlns:svg="http://www.w3.org/2000/svg">
  <defs
     id="defs1" />
  <sodipodi:namedview
     id="namedview1"
     pagecolor="#505050"
     bordercolor="#eeeeee"
     borderopacity="1"
     inkscape:showpageshadow="0"
     inkscape:pageopacity="0"
     inkscape:pagecheckerboard="0"
     inkscape:deskcolor="#505050"
     inkscape:zoom="37.75"
     inkscape:cx="8"
     inkscape:cy="8"
     inkscape:window-width="1312"
     inkscape:window-height="755"
     inkscape:window-x="20"
     inkscape:window-y="20"
     inkscape:window-maximized="0"
     inkscape:current-layer="svg1" />
  <title
     id="title1">js</title>
  <style
     id="style1">
		.s0 { fill: #f5aa52 } 
		.s1 { fill: #8080a0 } 
	</style>
  <g
     id="Layer 1">
    <path
       id="path1"
       class="s0"
       d="m 7.8007812,3 v 2.1992188 c 10e-8,0.3999999 -0.00156,0.5011718 -0.1015624,0.7011718 -10e-8,0.2 -0.065885,0.333724 -0.1992188,0.4003906 C 7.4,6.5007813 7.3003906,6.4992187 6.9003906,6.6992188 L 4.1992188,8.3007812 C 3.8992187,8.4007812 3.8,8.5 3.5,8.5 3.3666667,8.6333333 3.2329427,8.6333333 3.0996094,8.5 3.0663132,8.5 3.0337576,8.4972693 3,8.4921875 V 11 c 0,1.4 7.813e-4,2.099609 0.3007812,2.599609 0.2000001,0.5 0.5996094,0.89961 1.0996094,1.09961 C 4.9003906,14.999219 5.6,15 7,15 h 4 c 1.4,0 2.099609,-7.81e-4 2.599609,-0.300781 0.5,-0.2 0.89961,-0.59961 1.09961,-1.09961 C 14.999219,13.099609 15,12.4 15,11 V 7 c 0,-1.4 -7.81e-4,-2.0996094 -0.300781,-2.5996094 -0.2,-0.5 -0.59961,-0.8996093 -1.09961,-1.0996094 C 13.099609,3.0007813 12.4,3 11,3 Z m 0.099609,5.4003906 c 0.4666667,0 0.6992188,0.3003907 0.6992188,0.9003906 v 2.3984378 c 0,0.6 -0.098828,1.067057 -0.2988282,1.40039 C 8.1007813,13.432943 7.8333333,13.700391 7.5,13.900391 c -0.3333333,0.133333 -0.6996094,0.199218 -1.0996094,0.199218 -0.4,0 -0.766276,-0.06588 -1.0996094,-0.199218 C 4.9674479,13.767057 4.7,13.567448 4.5,13.300781 4.3,13.034115 4.1992187,12.665885 4.1992188,12.199219 c 0,-0.2 0.067839,-0.331771 0.2011718,-0.398438 0.1333334,-0.133333 0.3,-0.201172 0.5,-0.201172 0.2,0 0.3666667,0.06784 0.5,0.201172 0.1333334,0.133334 0.2321615,0.332943 0.2988282,0.59961 -10e-8,0.133333 0.034896,0.267057 0.1015624,0.40039 L 6,13 H 6.4003906 C 6.533724,13 6.6674479,12.967057 6.8007812,12.900391 6.9341146,12.833724 7.0329427,12.7 7.0996094,12.5 7.166276,12.233333 7.1992188,11.932943 7.1992188,11.599609 V 9.3007812 c -10e-8,-0.6 0.2345052,-0.9003906 0.7011718,-0.9003906 z m 4.4003904,0 c 0.333334,0 0.666667,0.032943 1,0.099609 0.266667,0.066667 0.532162,0.2003906 0.798828,0.4003906 l 0.300782,0.2988282 C 14.467057,9.3325521 14.5,9.466276 14.5,9.5996094 14.5,9.7329427 14.434115,9.8666667 14.300781,10 c -0.133333,0.06667 -0.267057,0.09961 -0.40039,0.09961 -0.2,0 -0.366667,-0.03294 -0.5,-0.09961 C 13.333724,9.9333333 13.232943,9.8674479 13.099609,9.8007812 13.032943,9.6674479 12.934115,9.5666667 12.800781,9.5 c -0.133333,-0.066667 -0.3,-0.099609 -0.5,-0.099609 -0.2,0 -0.366666,0.032943 -0.5,0.099609 -0.06667,0 -0.134505,0.065885 -0.201172,0.1992188 C 11.532943,9.7658854 11.5,9.833724 11.5,9.9003906 c 0,0.1333334 0.06588,0.2670574 0.199219,0.4003904 0.2,0.133334 0.50039,0.232162 0.90039,0.298828 0.4,0.133334 0.766276,0.267058 1.09961,0.400391 0.266666,0.133333 0.501172,0.3 0.701172,0.5 0.2,0.266667 0.298828,0.567057 0.298828,0.900391 0,0.333333 -0.09883,0.633724 -0.298828,0.90039 -0.266667,0.266667 -0.567058,0.466276 -0.900391,0.59961 -0.333333,0.133333 -0.767448,0.199218 -1.300781,0.199218 -0.4,0 -0.766276,-0.06588 -1.09961,-0.199218 C 10.766276,13.833724 10.500781,13.7 10.300781,13.5 10.034115,13.3 9.9003906,13.067448 9.9003906,12.800781 c 0,-0.133333 0.032943,-0.267057 0.099609,-0.40039 0.06667,-0.133334 0.200391,-0.201172 0.400391,-0.201172 0.2,0 0.366666,0.0349 0.5,0.101562 0.133333,0.06667 0.232161,0.165495 0.298828,0.298828 0.133333,0.133334 0.3,0.234115 0.5,0.300782 C 11.832552,12.967057 12.034115,13 12.300781,13 h 0.398438 C 12.832552,12.933333 12.933333,12.867448 13,12.800781 13.133333,12.667448 13.199219,12.566667 13.199219,12.5 c 0,-0.2 -0.09883,-0.366667 -0.298828,-0.5 C 12.700391,11.933333 12.4,11.867448 12,11.800781 c -0.733333,-0.2 -1.266276,-0.434505 -1.599609,-0.701172 C 10.133724,10.766276 10,10.367057 10,9.9003906 10,9.633724 10.100781,9.366276 10.300781,9.0996094 c 0.2,-0.2 0.465495,-0.3666667 0.798828,-0.5 0.4,-0.1333334 0.801172,-0.1992188 1.201172,-0.1992188 z"
       sodipodi:nodetypes="cscccccccsccssccssccscsssscsssscsscccsscsssscccscsccssccsccccscssccssssccscsscccsccs" />
  </g>
  <path
     id="Layer copy 2"
     fill-rule="evenodd"
     class="s1"
     d="m3.2 0c-0.2 0-0.3 0.1-0.5 0.2l-2 1.2c-0.3 0.1-0.4 0.1-0.4 0.3q-0.2 0.1-0.3 0.3c0 0.1 0 0.2 0 0.6v2.1c0 0.4 0 0.4 0 0.6q0.1 0.2 0.3 0.3c0 0.1 0.1 0.1 0.4 0.3l2 1.2c0.2 0.1 0.3 0.1 0.5 0.1q0.1 0.1 0.3 0c0.2 0 0.3 0 0.5-0.1l2-1.2c0.3-0.2 0.4-0.2 0.4-0.3q0.2-0.1 0.2-0.3c0.1-0.2 0.1-0.2 0.1-0.6v-2.1c0-0.4 0-0.5-0.1-0.6q0-0.2-0.2-0.3c0-0.2-0.1-0.2-0.4-0.3l-2-1.2c-0.2-0.1-0.3-0.2-0.5-0.2q-0.2 0-0.3 0zm0.1 4.9c-0.6 0-1.2-0.6-1.2-1.3 0-0.7 0.6-1.2 1.2-1.2 0.7 0 1.3 0.5 1.3 1.2 0 0.7-0.6 1.3-1.3 1.3z" />
</svg>

<svg xmlns="http://www.w3.org/2000/svg" width="16" height="16" version="1.2"><path d="M7.8 3v2.2c0 .4 0 .5-.1.7q0 .3-.2.4c-.1.2-.2.2-.6.4L4.2 8.3c-.3.1-.4.2-.7.2q-.2.2-.4 0a1 1 0 0 1-.1-.008V11c0 1.4 0 2.1.3 2.6.2.5.6.9 1.1 1.1.5.3 1.2.3 2.6.3h4c1.4 0 2.1 0 2.6-.3.5-.2.9-.6 1.1-1.1.3-.5.3-1.2.3-2.6V7c0-1.4 0-2.1-.3-2.6-.2-.5-.6-.9-1.1-1.1C13.1 3 12.4 3 11 3Zm.1 5.4q.7 0 .7.9v2.4q0 .9-.3 1.4t-.8.8q-.5.2-1.1.2t-1.1-.2a1.8 1.8 0 0 1-.8-.6q-.3-.4-.3-1.1 0-.3.2-.4a.68.68 0 0 1 .5-.2q.3 0 .5.2.2.201.3.6 0 .2.1.4l.2.2h.4a.9.9 0 0 0 .4-.1q.2-.1.3-.4.1-.4.1-.9V9.3q0-.9.7-.9m4.4 0q.5 0 1 .1.4.1.8.4l.3.3q.1.2.1.4t-.2.4a.9.9 0 0 1-.4.1q-.3 0-.5-.1a1.2 1.2 0 0 0-.3-.2.65.65 0 0 0-.3-.3q-.2-.1-.5-.1t-.5.1q-.1 0-.2.2-.1.1-.1.2 0 .2.2.4.3.2.9.3.6.2 1.1.4.4.2.7.5.3.4.3.9 0 .501-.3.9a2.7 2.7 0 0 1-.9.6q-.5.2-1.3.2-.6 0-1.1-.2-.5-.1-.8-.4-.4-.3-.4-.7 0-.2.1-.4t.4-.2.5.1a.65.65 0 0 1 .3.3q.2.2.5.3.2.1.6.1h.4a1.2 1.2 0 0 0 .3-.2q.2-.2.2-.3 0-.3-.3-.5-.3-.1-.9-.2-1.1-.3-1.6-.7-.4-.5-.4-1.2 0-.4.3-.8.3-.3.8-.5.6-.2 1.2-.2" style="fill:#f5aa52"/><path fill-rule="evenodd" d="M3.2 0c-.2 0-.3.1-.5.2l-2 1.2c-.3.1-.4.1-.4.3q-.2.1-.3.3v3.3q.1.2.3.3c0 .1.1.1.4.3l2 1.2c.2.1.3.1.5.1q.1.1.3 0c.2 0 .3 0 .5-.1l2-1.2c.3-.2.4-.2.4-.3q.2-.1.2-.3c.1-.2.1-.2.1-.6V2.6c0-.4 0-.5-.1-.6q0-.2-.2-.3c0-.2-.1-.2-.4-.3L4 .2C3.8.1 3.7 0 3.5 0zm.1 4.9c-.6 0-1.2-.6-1.2-1.3s.6-1.2 1.2-1.2c.7 0 1.3.5 1.3 1.2S4 4.9 3.3 4.9" style="fill:#8080a0"/></svg>
